X: 35625
T: Sail-Maker's Wife, The
R: jig
M: 6/8
K: Edorian
|:D|E2e edB|A2B GED|E2e edB|AB/c/d e2D|
E2e edB|A2B GEE|GAB dBA|GFD E2:|
|:f|g2e fed|Bcd e2f|g2e fed|BAG ~E3|
g2e fed|Bcd BAF|~D2F ~A2B|GED E2:|

